data/jaini-purva.svg

<svg width="54.166" height="18.396" viewBox="0 0 54.166 18.396" xmlns="http://www.w3.org/2000/svg"><path transform="translate(0 14.672) scale(.014 -.014)" d="m222 10q-41 0-78 13.5t-65.5 34.5-45 44-16.5 42q0 32 2 60t8 62l99-18q-4-28-6-56t-2-63q0-19 7.5-27t25.5-8q41 0 61.5 21t20.5 86q0 25-1 55t-1 80v53q0 48 3.5 94t11.5 73h-67l-51 66 7 17h159l56-78q-18-64-18-177v-42q0-62 1-107t1-83q0-142-112-142z"/><path transform="translate(5.39 14.672) scale(.014 -.014)" d="m393 5q-24 8-44 16.5t-38 18.5q-14-14-33.5-22.5t-44.5-8.5q-17 0-49.5 11t-66.5 28.5-57.5 39-23.5 42.5q0 26 0.5 46.5t0.5 24.5q0 59 30.5 83.5t85.5 24.5q28 0 60-4t52-9q1 28 1.5 53.5t0.5 38.5q0 11-6 16t-22 5q-39 0-66-6t-51-20h-19l-65 95 8 16h167q20 0 45.5-15.5t50.5-38.5 41-47 16-42q0-33-2-78t-4-91.5-2-84.5q0-30 10-41.5t38-22.5zm-258 125q0-25 9-31.5t22-6.5q41 0 68.5 21.5t27.5 67.5q0 9 0.5 22t0.5 29q-11 3-27 4t-29 1q-36 0-54-16t-18-56z"/><path transform="translate(11.172 14.672) scale(.014 -.014)" d="m111 561-66 71v10q27 36 73 63l66-69-1-12q-20-14-37.5-31t-34.5-32zm89-563q-64 24-98.5 43.5t-34.5 35.5q0 14 3.5 43.5t3.5 57.5v143q0 26 2.5 48.5t8.5 39.5h-33l-53 68 7 17h128l58-78q-12-16-15.5-40t-3.5-61v-148q0-36-3-63.5t-3-41.5q0-10 7.5-15.5t37.5-21.5z"/><path transform="translate(14.518 14.672) scale(.014 -.014)" d="m190 0q-64 24-98.5 43.5t-34.5 35.5q0 14 3.5 43.5t3.5 57.5v128q0 20 1.5 50t6.5 51h-37l-52 69 7 16h94q4 0 17.5-13.5t27.5-30.5q19 26 47.5 38.5t55.5 12.5h21q20 0 44.5-16t48-39 38.5-45.5 15-36.5q0-25-2-62t-2-60v-73q0-36-3-63.5t-3-41.5q0-10 7.5-15.5t37.5-21.5l-12-27q-64 24-98.5 43.5t-34.5 35.5q0 14 3.5 43.5t3.5 57.5v52q0 32 2 73t2 72q0 20-5 27t-22 7q-56 0-83-28.5t-27-78.5v-135q0-36-3-63.5t-3-41.5q0-10 7.5-15.5t37.5-21.5z"/><path transform="translate(20.818 14.672) scale(.014 -.014)" d="m111 561-66 71v10q27 36 73 63l66-69-1-12q-20-14-37.5-31t-34.5-32zm89-563q-64 24-98.5 43.5t-34.5 35.5q0 14 3.5 43.5t3.5 57.5v143q0 26 2.5 48.5t8.5 39.5h-33l-53 68 7 17h128l58-78q-12-16-15.5-40t-3.5-61v-148q0-36-3-63.5t-3-41.5q0-10 7.5-15.5t37.5-21.5z"/><path transform="translate(25.984 14.672) scale(.014 -.014)" d="m194-11q-66 22-100 41t-34 31q0 11 2 23t4 35 2 66v200q0 66 5.5 107.5t11.5 64.5h-34l-50 67 8 16h90q39 0 72 1.5t49 1.5q23 0 54-16.5t60.5-41.5 49.5-51.5 20-47.5v-106q0-78-28-116.5t-92-38.5q-27 0-57 5t-58 14v-81q0-43-2.5-68.5t-2.5-39.5q0-17 43-37zm60 568q-15 0-31.5-1t-34.5-4q-8-27-13.5-67t-5.5-93v-82q19-4 44-4 52 0 71 27t19 85v89q0 27-10 38.5t-39 11.5z"/><path transform="translate(31.892 14.672) scale(.014 -.014)" d="m421 3q-23 9-42 19t-36 22q-21-17-50-28t-54-11q-18 0-49 12t-63 32-54 43.5-22 45.5q0 15 2.5 48.5t2.5 76.5v58q0 26 2.5 48.5t8.5 39.5h-33l-53 68 7 17h128l58-78q-12-16-15.5-40t-3.5-61v-59q0-66-1.5-96t-1.5-42q0-28 34-28 25 0 48.5 9.5t39 28 15.5 44.5v149q0 26 2.5 48.5t8.5 39.5h-33l-53 68 7 17h128l58-78q-12-16-15.5-40t-3.5-61v-107q0-55-2-83t-2-41q0-16 11.5-28.5t38.5-26.5z"/><path transform="translate(38.15 14.672) scale(.014 -.014)" d="m221-9q-86 28-124 48.5t-38 29.5q0 11 3.5 38t3.5 84v124q0 20 2 47.5t6 46.5h-37l-52 69 7 16h94q5 0 18.5-14.5t27.5-31.5q16 26 44.5 38t60.5 12q16 0 24-2l50-70-8-12q-70 1-104-27t-34-103v-107q0-50-2.5-77.5t-2.5-36.5q0-6 4-10.5t19.5-10.5 49.5-20z"/><path transform="translate(42.728 14.672) scale(.014 -.014)" d="m227-2q-11 0-31.5 14.5t-42.5 35.5-38.5 39.5-18.5 27.5q-22 89-36 142.5t-20.5 83-6.5 45.5q0 12 3 23h-23l-49 69 8 16h127l46-67v-13q-22-4-30-17t-8-33q0-11 5-35.5t19-77 41-146.5q14 36 28 73.5t33 92 48 138.5h-44l-46 69 7 16h125l61-84q-42-125-70-205.5t-45-125.5-26.5-63-15.5-18z"/><path transform="translate(48.384 14.672) scale(.014 -.014)" d="m393 5q-24 8-44 16.5t-38 18.5q-14-14-33.5-22.5t-44.5-8.5q-17 0-49.5 11t-66.5 28.5-57.5 39-23.5 42.5q0 26 0.5 46.5t0.5 24.5q0 59 30.5 83.5t85.5 24.5q28 0 60-4t52-9q1 28 1.5 53.5t0.5 38.5q0 11-6 16t-22 5q-39 0-66-6t-51-20h-19l-65 95 8 16h167q20 0 45.5-15.5t50.5-38.5 41-47 16-42q0-33-2-78t-4-91.5-2-84.5q0-30 10-41.5t38-22.5zm-258 125q0-25 9-31.5t22-6.5q41 0 68.5 21.5t27.5 67.5q0 9 0.5 22t0.5 29q-11 3-27 4t-29 1q-36 0-54-16t-18-56z"/></svg>

<?xml version="1.0" encoding="utf-8" ?>
<svg baseProfile="tiny" height="100%" version="1.2" width="100%" xmlns="http://www.w3.org/2000/svg" xmlns:ev="http://www.w3.org/2001/xml-events" xmlns:xlink="http://www.w3.org/1999/xlink"><defs /><g><path d="M222 10Q181 10 144.0 23.5Q107 37 78.5 58.0Q50 79 33.5 102.0Q17 125 17 144Q17 176 19.0 204.0Q21 232 27 266L126 248Q122 220 120.0 192.0Q118 164 118 129Q118 110 125.5 102.0Q133 94 151 94Q192 94 212.5 115.0Q233 136 233 201Q233 226 232.0 256.0Q231 286 231 336V389Q231 437 234.5 483.0Q238 529 246 556H179L128 622L135 639H294L350 561Q332 497 332 384V342Q332 280 333.0 235.0Q334 190 334 152Q334 10 222 10Z" transform="translate(0.0, 72) scale(0.072, -0.072)" /><path d="M393 5Q369 13 349.0 21.5Q329 30 311 40Q297 26 277.5 17.5Q258 9 233 9Q216 9 183.5 20.0Q151 31 117.0 48.5Q83 66 59.5 87.5Q36 109 36 130Q36 156 36.5 176.5Q37 197 37 201Q37 260 67.5 284.5Q98 309 153 309Q181 309 213.0 305.0Q245 301 265 296Q266 324 266.5 349.5Q267 375 267 388Q267 399 261.0 404.0Q255 409 239 409Q200 409 173.0 403.0Q146 397 122 383H103L38 478L46 494H213Q233 494 258.5 478.5Q284 463 309.0 440.0Q334 417 350.0 393.0Q366 369 366 351Q366 318 364.0 273.0Q362 228 360.0 181.5Q358 135 358 97Q358 67 368.0 55.5Q378 44 406 33ZM135 130Q135 105 144.0 98.5Q153 92 166 92Q207 92 234.5 113.5Q262 135 262 181Q262 190 262.5 203.0Q263 216 263 232Q252 235 236.0 236.0Q220 237 207 237Q171 237 153.0 221.0Q135 205 135 165Z" transform="translate(27.72, 72) scale(0.072, -0.072)" /><path d="M111 561 45 632V642Q72 678 118 705L184 636L183 624Q163 610 145.5 593.0Q128 576 111 561ZM200 -2Q136 22 101.5 41.5Q67 61 67 77Q67 91 70.5 120.5Q74 150 74 178V321Q74 347 76.5 369.5Q79 392 85 409H52L-1 477L6 494H134L192 416Q180 400 176.5 376.0Q173 352 173 315V167Q173 131 170.0 103.5Q167 76 167 62Q167 52 174.5 46.5Q182 41 212 25Z" transform="translate(57.455999999999996, 72) scale(0.072, -0.072)" /><path d="M190 0Q126 24 91.5 43.5Q57 63 57 79Q57 93 60.5 122.5Q64 152 64 180V308Q64 328 65.5 358.0Q67 388 72 409H35L-17 478L-10 494H84Q88 494 101.5 480.5Q115 467 129 450Q148 476 176.5 488.5Q205 501 232 501H253Q273 501 297.5 485.0Q322 469 345.5 446.0Q369 423 384.0 400.5Q399 378 399 364Q399 339 397.0 302.0Q395 265 395 242V169Q395 133 392.0 105.5Q389 78 389 64Q389 54 396.5 48.5Q404 43 434 27L422 0Q358 24 323.5 43.5Q289 63 289 79Q289 93 292.5 122.5Q296 152 296 180V232Q296 264 298.0 305.0Q300 346 300 377Q300 397 295.0 404.0Q290 411 273 411Q217 411 190.0 382.5Q163 354 163 304V169Q163 133 160.0 105.5Q157 78 157 64Q157 54 164.5 48.5Q172 43 202 27Z" transform="translate(74.66399999999999, 72) scale(0.072, -0.072)" /><path d="M111 561 45 632V642Q72 678 118 705L184 636L183 624Q163 610 145.5 593.0Q128 576 111 561ZM200 -2Q136 22 101.5 41.5Q67 61 67 77Q67 91 70.5 120.5Q74 150 74 178V321Q74 347 76.5 369.5Q79 392 85 409H52L-1 477L6 494H134L192 416Q180 400 176.5 376.0Q173 352 173 315V167Q173 131 170.0 103.5Q167 76 167 62Q167 52 174.5 46.5Q182 41 212 25Z" transform="translate(107.064, 72) scale(0.072, -0.072)" /><path d="M194 -11Q128 11 94.0 30.0Q60 49 60 61Q60 72 62.0 84.0Q64 96 66.0 119.0Q68 142 68 185V385Q68 451 73.5 492.5Q79 534 85 557H51L1 624L9 640H99Q138 640 171.0 641.5Q204 643 220 643Q243 643 274.0 626.5Q305 610 334.5 585.0Q364 560 384.0 533.5Q404 507 404 486V380Q404 302 376.0 263.5Q348 225 284 225Q257 225 227.0 230.0Q197 235 169 244V163Q169 120 166.5 94.5Q164 69 164 55Q164 38 207 18ZM254 557Q239 557 222.5 556.0Q206 555 188 552Q180 525 174.5 485.0Q169 445 169 392V310Q188 306 213 306Q265 306 284.0 333.0Q303 360 303 418V507Q303 534 293.0 545.5Q283 557 254 557Z" transform="translate(133.632, 72) scale(0.072, -0.072)" /><path d="M421 3Q398 12 379.0 22.0Q360 32 343 44Q322 27 293.0 16.0Q264 5 239 5Q221 5 190.0 17.0Q159 29 127.0 49.0Q95 69 73.0 92.5Q51 116 51 138Q51 153 53.5 186.5Q56 220 56 263V321Q56 347 58.5 369.5Q61 392 67 409H34L-19 477L-12 494H116L174 416Q162 400 158.5 376.0Q155 352 155 315V256Q155 190 153.5 160.0Q152 130 152 118Q152 90 186 90Q211 90 234.5 99.5Q258 109 273.5 127.5Q289 146 289 172V321Q289 347 291.5 369.5Q294 392 300 409H267L214 477L221 494H349L407 416Q395 400 391.5 376.0Q388 352 388 315V208Q388 153 386.0 125.0Q384 97 384 84Q384 68 395.5 55.5Q407 43 434 29Z" transform="translate(164.016, 72) scale(0.072, -0.072)" /><path d="M221 -9Q135 19 97.0 39.5Q59 60 59 69Q59 80 62.5 107.0Q66 134 66 191V315Q66 335 68.0 362.5Q70 390 74 409H37L-15 478L-8 494H86Q91 494 104.5 479.5Q118 465 132 448Q148 474 176.5 486.0Q205 498 237 498Q253 498 261 496L311 426L303 414Q233 415 199.0 387.0Q165 359 165 284V177Q165 127 162.5 99.5Q160 72 160 63Q160 57 164.0 52.5Q168 48 183.5 42.0Q199 36 233 22Z" transform="translate(196.2, 72) scale(0.072, -0.072)" /><path d="M227 -2Q216 -2 195.5 12.5Q175 27 153.0 48.0Q131 69 114.5 87.5Q98 106 96 115Q74 204 60.0 257.5Q46 311 39.5 340.5Q33 370 33 386Q33 398 36 409H13L-36 478L-28 494H99L145 427V414Q123 410 115.0 397.0Q107 384 107 364Q107 353 112.0 328.5Q117 304 131.0 251.5Q145 199 172 105Q186 141 200.0 178.5Q214 216 233.0 270.5Q252 325 281 409H237L191 478L198 494H323L384 410Q342 285 314.0 204.5Q286 124 269.0 79.0Q252 34 242.5 16.0Q233 -2 227 -2Z" transform="translate(219.74399999999997, 72) scale(0.072, -0.072)" /><path d="M393 5Q369 13 349.0 21.5Q329 30 311 40Q297 26 277.5 17.5Q258 9 233 9Q216 9 183.5 20.0Q151 31 117.0 48.5Q83 66 59.5 87.5Q36 109 36 130Q36 156 36.5 176.5Q37 197 37 201Q37 260 67.5 284.5Q98 309 153 309Q181 309 213.0 305.0Q245 301 265 296Q266 324 266.5 349.5Q267 375 267 388Q267 399 261.0 404.0Q255 409 239 409Q200 409 173.0 403.0Q146 397 122 383H103L38 478L46 494H213Q233 494 258.5 478.5Q284 463 309.0 440.0Q334 417 350.0 393.0Q366 369 366 351Q366 318 364.0 273.0Q362 228 360.0 181.5Q358 135 358 97Q358 67 368.0 55.5Q378 44 406 33ZM135 130Q135 105 144.0 98.5Q153 92 166 92Q207 92 234.5 113.5Q262 135 262 181Q262 190 262.5 203.0Q263 216 263 232Q252 235 236.0 236.0Q220 237 207 237Q171 237 153.0 221.0Q135 205 135 165Z" transform="translate(248.83199999999997, 72) scale(0.072, -0.072)" /></g></svg>
